build/svg/extensions/res/update/ui/onlineupdate_16.svg

<svg xmlns="http://www.w3.org/2000/svg" viewBox="0 0 16 16"><circle cx="8" cy="8" r="7" fill="#4d4d4d" fill-rule="evenodd"/><path d="M8 1a7 7 0 00-3 .686V3h3a5 5 0 015 5 5 5 0 01-2.01 4H12v1.742A7 7 0 0015 8a7 7 0 00-7-7zM4 2.258A7 7 0 001 8a7 7 0 007 7 7 7 0 003-.686V13H8a5 5 0 01-5-5 5 5 0 012.01-4H4V2.258z" fill="#ebebeb" fill-rule="evenodd"/><circle cx="8" cy="8" r="5" opacity=".1" fill="#babeb4" fill-rule="evenodd"/><path d="M4.5 11l3-7h1l3 7H10L8 5.5 6 11H4.5" fill="#fff9f2"/><path d="M8.5 4L8 5.5l2 5.5h1.5z" fill="#4571df" opacity=".1"/><rect width="8" height="1" x="4" y="8" rx=".771" ry=".5" fill="#f8f8f8" fill-rule="evenodd"/><path d="M8 1a7 7 0 00-7 7 7 7 0 007 7 7 7 0 007-7 7 7 0 00-7-7zm0 1a6 6 0 016 6 6 6 0 01-6 6 6 6 0 01-6-6 6 6 0 016-6z" opacity=".2" fill-rule="evenodd"/></svg>

<?xml version="1.0" encoding="UTF-8" standalone="no"?>
<svg
   xmlns:dc="http://purl.org/dc/elements/1.1/"
   xmlns:cc="http://creativecommons.org/ns#"
   xmlns:rdf="http://www.w3.org/1999/02/22-rdf-syntax-ns#"
   xmlns:svg="http://www.w3.org/2000/svg"
   xmlns="http://www.w3.org/2000/svg"
   xmlns:sodipodi="http://sodipodi.sourceforge.net/DTD/sodipodi-0.dtd"
   xmlns:inkscape="http://www.inkscape.org/namespaces/inkscape"
   viewBox="0 0 16 16"
   version="1.1"
   id="svg4"
   sodipodi:docname="onlineupdate_16.svg"
   inkscape:export-filename="/home/jupiter007/Libreoffice yaru theme fullcolor/build/extensions/res/update/ui/onlineupdate_16.png"
   inkscape:export-xdpi="96"
   inkscape:export-ydpi="96"
   inkscape:version="0.92.5 (2060ec1f9f, 2020-04-08)">
  <metadata
     id="metadata10">
    <rdf:RDF>
      <cc:Work
         rdf:about="">
        <dc:format>image/svg+xml</dc:format>
        <dc:type
           rdf:resource="http://purl.org/dc/dcmitype/StillImage" />
        <dc:title></dc:title>
      </cc:Work>
    </rdf:RDF>
  </metadata>
  <defs
     id="defs8" />
  <sodipodi:namedview
     pagecolor="#ffffff"
     bordercolor="#666666"
     borderopacity="1"
     objecttolerance="10"
     gridtolerance="10"
     guidetolerance="10"
     inkscape:pageopacity="0"
     inkscape:pageshadow="2"
     inkscape:window-width="1920"
     inkscape:window-height="1011"
     id="namedview6"
     showgrid="true"
     inkscape:zoom="22.627417"
     inkscape:cx="0.89595826"
     inkscape:cy="7.1233614"
     inkscape:window-x="0"
     inkscape:window-y="32"
     inkscape:window-maximized="1"
     inkscape:current-layer="svg4"
     inkscape:snap-bbox="true"
     inkscape:bbox-nodes="true">
    <inkscape:grid
       type="xygrid"
       id="grid827"
       spacingx="0.5"
       spacingy="0.5"
       dotted="true" />
    <inkscape:grid
       type="xygrid"
       id="grid862" />
  </sodipodi:namedview>
  <circle
     style="opacity:1;fill:#4d4d4d;fill-opacity:1;fill-rule:evenodd;stroke:none;stroke-width:2;stroke-linecap:round;stroke-linejoin:round;stroke-miterlimit:4;stroke-dasharray:none;stroke-opacity:1"
     id="path829"
     cx="8"
     cy="8"
     r="7" />
  <path
     style="opacity:1;fill:#ebebeb;fill-opacity:1;fill-rule:evenodd;stroke:none;stroke-width:2;stroke-linecap:round;stroke-linejoin:round;stroke-miterlimit:4;stroke-dasharray:none;stroke-opacity:1"
     d="M 8 1 A 7 7 0 0 0 5 1.6855469 L 5 3 L 8 3 A 5 5 0 0 1 13 8 A 5 5 0 0 1 10.990234 12 L 11 12 L 12 12 L 12 13 L 12 13.742188 A 7 7 0 0 0 15 8 A 7 7 0 0 0 8 1 z M 4 2.2578125 A 7 7 0 0 0 1 8 A 7 7 0 0 0 8 15 A 7 7 0 0 0 11 14.314453 L 11 13 L 8 13 A 5 5 0 0 1 3 8 A 5 5 0 0 1 5.0097656 4 L 5 4 L 4 4 L 4 3 L 4 2.2578125 z "
     id="path831" />
  <circle
     style="opacity:0.1;fill:#babeb4;fill-opacity:1;fill-rule:evenodd;stroke:none;stroke-width:2;stroke-linecap:round;stroke-linejoin:round;stroke-miterlimit:4;stroke-dasharray:none;stroke-opacity:1"
     id="path850"
     cx="8"
     cy="8"
     r="5" />
  <path
     style="fill:#fff9f2;stroke:none;stroke-width:1px;stroke-linecap:butt;stroke-linejoin:miter;stroke-opacity:1;fill-opacity:1"
     d="m 4.5,11 3,-7 h 1 l 3,7 H 10 L 8,5.5 6,11 H 4.5"
     id="path864"
     inkscape:connector-curvature="0" />
  <path
     style="fill:#4571df;stroke:none;stroke-width:1px;stroke-linecap:butt;stroke-linejoin:miter;stroke-opacity:1;fill-opacity:1;opacity:0.1"
     d="M 8.5,4 8,5.5 10,11 h 1.5 z"
     id="path866"
     inkscape:connector-curvature="0" />
  <rect
     style="opacity:1;fill:#f8f8f8;fill-opacity:1;fill-rule:evenodd;stroke:none;stroke-width:2;stroke-linecap:round;stroke-linejoin:round;stroke-miterlimit:4;stroke-dasharray:none;stroke-opacity:1"
     id="rect858"
     width="8"
     height="1"
     x="4"
     y="8"
     rx="0.77142102"
     ry="0.5" />
  <path
     style="opacity:0.2;fill:#000000;fill-opacity:1;fill-rule:evenodd;stroke:none;stroke-width:2;stroke-linecap:round;stroke-linejoin:round;stroke-miterlimit:4;stroke-dasharray:none;stroke-opacity:1"
     d="M 8 1 A 7 7 0 0 0 1 8 A 7 7 0 0 0 8 15 A 7 7 0 0 0 15 8 A 7 7 0 0 0 8 1 z M 8 2 A 6 6 0 0 1 14 8 A 6 6 0 0 1 8 14 A 6 6 0 0 1 2 8 A 6 6 0 0 1 8 2 z "
     id="path868" />
</svg>
